src/work/blix/blixmap/static/images/thumbnail-placeholder.svg

<svg height="60" viewBox="0 0 60 60" width="60" xmlns="http://www.w3.org/2000/svg" xmlns:xlink="http://www.w3.org/1999/xlink"><defs><rect id="a" height="58" rx="2" width="58"/><linearGradient id="b" x1="50%" x2="3.14544%" y1="24.285442%" y2="96.129478%"><stop offset="0" stop-opacity="0"/><stop offset="1" stop-opacity=".4"/></linearGradient><mask id="c" fill="#fff"><use fill="#fff" fill-rule="evenodd" xlink:href="#a"/></mask></defs><g fill="none" fill-rule="evenodd" transform="translate(1 1)"><use fill="#f1efe8" xlink:href="#a"/><path d="m26.0605907 6.93940929-26.0605907 26.06059071-.00000013 8.9999999 6.50000014-6.5000001 23.50000019 23.4999999 6.9999998-.0000004v.0000007h6.9999999l.0000001-34.1211814 14.0605901 14.0605902-.0264291-9.9735708-14.034161-14.0341611v-14.9316769h-7v7.93167696l-7.9658386-7.96583861-10.0351238-.08798215zm4.4999998 4.49999981-19.0605906 19.0605908 25.5000001 25.5000001v-38.1211814z" fill="#fff" mask="url(#c)" stroke="#dbdad6"/><path d="m29 39 24-11.9156627-16.5517241-11.0843373z" fill="url(#b)" fill-opacity=".7" mask="url(#c)"/><g mask="url(#c)"><g transform="translate(13 7)"><path d="m5 5h22v22h-22z" fill="#fff" transform="matrix(.70710678 -.70710678 .70710678 .70710678 -6.627417 16)"/><circle cx="16" cy="16" fill="#4a5059" r="8"/></g></g></g></svg>

<?xml version="1.0" encoding="UTF-8" standalone="no"?>
<svg width="60px" height="60px" viewBox="0 0 60 60" version="1.1" xmlns="http://www.w3.org/2000/svg" xmlns:xlink="http://www.w3.org/1999/xlink" xmlns:sketch="http://www.bohemiancoding.com/sketch/ns">
    <!-- Generator: Sketch 3.1.1 (8761) - http://www.bohemiancoding.com/sketch -->
    <title>thumbnail-placeholder</title>
    <desc>Created with Sketch.</desc>
    <defs>
        <rect id="path-1" x="0" y="0" width="58" height="58" rx="2"></rect>
        <linearGradient x1="50%" y1="24.2854421%" x2="3.14543968%" y2="96.1294779%" id="linearGradient-3">
            <stop stop-color="#000000" stop-opacity="0" offset="0%"></stop>
            <stop stop-color="#000000" stop-opacity="0.4" offset="100%"></stop>
        </linearGradient>
    </defs>
    <g id="Page-1" stroke="none" stroke-width="1" fill="none" fill-rule="evenodd" sketch:type="MSPage">
        <g id="thumbnail-placeholder" sketch:type="MSLayerGroup" transform="translate(1.000000, 1.000000)">
            <mask id="mask-2" sketch:name="background" fill="white">
                <use xlink:href="#path-1"></use>
            </mask>
            <use id="background" fill="#F1EFE8" sketch:type="MSShapeGroup" xlink:href="#path-1"></use>
            <path d="M26.0605907,6.93940929 L-1.77635684e-14,33 L-1.25390327e-07,41.9999999 L6.50000001,35.4999998 L6.50000001,35.4999998 L30.0000002,58.9999997 L37,58.9999993 L37,59 L43.9999999,59 L44,24.8788186 L58.0605901,38.9394088 L58.034161,28.965838 L44,14.9316769 L44,3.38928885e-12 L37,4.05009359e-12 L37,7.93167696 L29.0341614,-0.0341616505 L18.9990376,-0.122143799 L26.0605907,6.93940929 Z M30.5605905,11.4394091 L11.4999999,30.4999999 L37,56 L37,17.8788186 L30.5605905,11.4394091 Z" id="streets" stroke="#DBDAD6" fill="#FFFFFF" sketch:type="MSShapeGroup" mask="url(#mask-2)"></path>
            <path d="M29,39 L53,27.0843373 L36.4482759,16 L29,39 Z" id="pinshadow" fill-opacity="0.699999988" fill="url(#linearGradient-3)" sketch:type="MSShapeGroup" mask="url(#mask-2)"></path>
            <g id="pin" mask="url(#mask-2)" sketch:type="MSShapeGroup">
                <g transform="translate(13.000000, 7.000000)">
                    <rect id="pinbg" fill="#FFFFFF" transform="translate(16.000000, 16.000000) rotate(-45.000000) translate(-16.000000, -16.000000) " x="5" y="5" width="22" height="22"></rect>
                    <circle id="color" fill="#4A5059" cx="16" cy="16" r="8"></circle>
                </g>
            </g>
        </g>
    </g>
</svg>
